public/assets/routes_avatar/mainTax.svg

<?xml version="1.0" encoding="UTF-8"?>
<svg width="60px" height="60px" viewBox="0 0 60 60" version="1.1" xmlns="http://www.w3.org/2000/svg" xmlns:xlink="http://www.w3.org/1999/xlink">
    <!-- Generator: Sketch 49.3 (51167) - http://www.bohemiancoding.com/sketch -->
    <title>基础信息-纳税主体</title>
    <desc>Created with Sketch.</desc>
    <defs>
        <path d="M1.20535714,16.2388393 L5.22321429,16.2388393 C5.88950893,16.2388393 6.42857143,15.6997768 6.42857143,15.0334821 C6.42857143,14.3671875 5.88950893,13.828125 5.22321429,13.828125 L1.20535714,13.828125 C0.5390625,13.828125 0,14.3671875 0,15.0334821 C0,15.6997768 0.5390625,16.2388393 1.20535714,16.2388393 Z" id="path-1"></path>
        <path d="M6.42857143,21.0267857 C6.42857143,20.3604911 5.88950893,19.8214286 5.22321429,19.8214286 L1.20535714,19.8214286 C0.5390625,19.8214286 0,20.3604911 0,21.0267857 C0,21.6930804 0.5390625,22.2321429 1.20535714,22.2321429 L5.22321429,22.2321429 C5.88950893,22.2321429 6.42857143,21.6930804 6.42857143,21.0267857 Z M1.20535714,10.2455357 L5.22321429,10.2455357 C5.88950893,10.2455357 6.42857143,9.70647321 6.42857143,9.04017857 C6.42857143,8.37388393 5.88950893,7.83482143 5.22321429,7.83482143 L1.20535714,7.83482143 C0.5390625,7.83482143 0,8.37388393 0,9.04017857 C0,9.70647321 0.5390625,10.2455357 1.20535714,10.2455357 Z" id="path-2"></path>
        <path d="M27.7197802,0 L4.56593407,0 C3.22651099,0 2.14285714,1.078125 2.14285714,2.41071429 L2.14285714,4.28571429 C2.14285714,4.95200893 2.68468407,5.49107143 3.3543956,5.49107143 C4.02410714,5.49107143 4.56593407,4.95200893 4.56593407,4.28571429 L4.56593407,2.41071429 L27.7197802,2.41071429 L27.7197802,27.5892857 L4.56593407,27.5892857 L4.56593407,25.78125 L4.56256868,25.78125 C4.56256868,25.7578125 4.56593407,25.7377232 4.56593407,25.7142857 C4.56593407,25.0479911 4.02410714,24.5089286 3.3543956,24.5089286 C2.68468407,24.5089286 2.14285714,25.0479911 2.14285714,25.7142857 C2.14285714,25.7377232 2.14285714,25.7578125 2.14622253,25.78125 L2.14285714,25.78125 L2.14285714,27.5892857 C2.14285714,28.921875 3.22651099,30 4.56593407,30 L27.7197802,30 C29.0592033,30 30.1428571,28.921875 30.1428571,27.5892857 L30.1428571,2.41071429 C30.1428571,1.078125 29.0592033,0 27.7197802,0 Z" id="path-3"></path>
    </defs>
    <g id="icon" stroke="none" stroke-width="1" fill="none" fill-rule="evenodd">
        <g id="基础信息-纳税主体">
            <circle id="Oval-Copy" fill="#2A98FF" cx="30" cy="30" r="30"></circle>
            <g id="Group-49" transform="translate(15.000000, 15.000000)" fill-rule="nonzero">
                <g id="Shape">
                    <use fill="#FFFFFF" fill-rule="evenodd" xlink:href="#path-1"></use>
                    <path stroke="#56A6F2" stroke-width="0.2" d="M1.20535714,16.1388393 L5.22321429,16.1388393 C5.83428045,16.1388393 6.32857143,15.6445483 6.32857143,15.0334821 C6.32857143,14.422416 5.83428045,13.928125 5.22321429,13.928125 L1.20535714,13.928125 C0.594290975,13.928125 0.1,14.422416 0.1,15.0334821 C0.1,15.6445483 0.594290975,16.1388393 1.20535714,16.1388393 Z"></path>
                </g>
                <g id="Group-48">
                    <g id="Shape">
                        <use fill="#FFFFFF" fill-rule="evenodd" xlink:href="#path-2"></use>
                        <path stroke="#56A6F2" stroke-width="0.2" d="M6.32857143,21.0267857 C6.32857143,20.4157195 5.83428045,19.9214286 5.22321429,19.9214286 L1.20535714,19.9214286 C0.594290975,19.9214286 0.1,20.4157195 0.1,21.0267857 C0.1,21.6378519 0.594290975,22.1321429 1.20535714,22.1321429 L5.22321429,22.1321429 C5.83428045,22.1321429 6.32857143,21.6378519 6.32857143,21.0267857 Z M1.20535714,10.1455357 L5.22321429,10.1455357 C5.83428045,10.1455357 6.32857143,9.65124474 6.32857143,9.04017857 C6.32857143,8.4291124 5.83428045,7.93482143 5.22321429,7.93482143 L1.20535714,7.93482143 C0.594290975,7.93482143 0.1,8.4291124 0.1,9.04017857 C0.1,9.65124474 0.594290975,10.1455357 1.20535714,10.1455357 Z"></path>
                    </g>
                    <g id="Shape">
                        <use fill="#FFFFFF" fill-rule="evenodd" xlink:href="#path-3"></use>
                        <path stroke="#56A6F2" stroke-width="0.2" d="M2.23288919,25.78125 L2.14285714,25.78125 L2.14285714,25.88125 L2.14622253,25.88125 L2.23288919,25.78125 Z M4.46593407,25.7846154 L4.56256868,25.88125 L4.56593407,25.88125 L4.56593407,25.78125 L4.46593407,25.78125 L4.46593407,25.7846154 Z"></path>
                    </g>
                    <path d="M23.9935126,22.2066886 C23.9935126,22.1498442 23.985737,22.0952064 23.9737866,22.0420716 C23.6526302,19.4525727 22.0157151,17.2900864 19.7775068,16.2943417 C21.0729187,15.3773638 21.9233243,13.837112 21.9233243,12.0908611 C21.9233243,9.2792292 19.7194928,7 17.000939,7 C14.282354,7 12.0785226,9.27924519 12.0785226,12.0908611 C12.0785226,13.8376876 12.9295179,15.3784511 14.2256748,16.2952852 C12.0073631,17.2831467 10.3795428,19.4170109 10.0393433,21.9768485 C10.0157373,22.049491 10,22.1258272 10,22.2066726 L10.0056183,22.265132 C10.0064563,22.6750194 10.3207063,23 10.7082885,23 C11.0958707,23 11.4100896,22.6750194 11.4100896,22.2740225 C11.7511582,19.4903251 13.9677471,17.319476 16.7037455,17.1716485 C16.8021116,17.1776928 16.9010364,17.1817062 17.000939,17.1817062 C17.1010123,17.1817062 17.2001233,17.1776928 17.2986911,17.1715366 C20.0348913,17.3190762 22.2517906,19.4901172 22.5794809,22.2652599 C22.5961495,22.6750194 22.9103994,23 23.2981679,23 C23.6857501,23 24,22.6750194 24,22.2740225 C23.9991619,22.2603777 23.9969994,22.237933 23.9935126,22.2066886 Z M13.4836923,12.0923322 C13.4836923,10.0840214 15.0577201,8.45590462 16.9996197,8.45590462 C18.9415038,8.45590462 20.5157024,10.0840374 20.5157024,12.0923322 C20.5157024,13.9884572 19.111976,15.5439315 17.3208382,15.7119703 C17.2153795,15.7070614 17.1093465,15.7041512 17.0026306,15.7041512 C16.8946111,15.7041512 16.7871347,15.7070774 16.6802482,15.7120503 C14.8882722,15.5448909 13.4836923,13.9891288 13.4836923,12.0923322 Z" id="Shape" fill="#FFFFFF"></path>
                </g>
            </g>
        </g>
    </g>
</svg>

<svg width="60" height="60" xmlns="http://www.w3.org/2000/svg" xmlns:xlink="http://www.w3.org/1999/xlink"><defs><path d="M1.205 16.239h4.018a1.205 1.205 0 1 0 0-2.41H1.205a1.205 1.205 0 1 0 0 2.41z" id="a"/><path d="M6.429 21.027c0-.667-.54-1.206-1.206-1.206H1.205a1.205 1.205 0 1 0 0 2.411h4.018c.667 0 1.206-.539 1.206-1.205zM1.205 10.246h4.018a1.205 1.205 0 1 0 0-2.411H1.205a1.205 1.205 0 1 0 0 2.41z" id="b"/><path d="M27.72 0H4.566a2.415 2.415 0 0 0-2.423 2.41v1.876c0 .666.542 1.205 1.211 1.205.67 0 1.212-.539 1.212-1.205V2.41H27.72v25.178H4.566v-1.808h-.003c0-.023.003-.043.003-.067 0-.666-.542-1.205-1.212-1.205a1.208 1.208 0 0 0-1.208 1.272h-.003v1.808A2.415 2.415 0 0 0 4.566 30H27.72a2.415 2.415 0 0 0 2.423-2.41V2.41A2.415 2.415 0 0 0 27.72 0z" id="c"/></defs><g fill="none" fill-rule="evenodd"><circle fill="#2A98FF" cx="30" cy="30" r="30"/><g fill-rule="nonzero"><g transform="translate(15 15)"><use fill="#FFF" fill-rule="evenodd" xlink:href="#a"/><path stroke="#56A6F2" stroke-width=".2" d="M1.205 16.139h4.018a1.105 1.105 0 1 0 0-2.21H1.205a1.105 1.105 0 1 0 0 2.21z"/></g><g transform="translate(15 15)"><use fill="#FFF" fill-rule="evenodd" xlink:href="#b"/><path stroke="#56A6F2" stroke-width=".2" d="M6.329 21.027c0-.611-.495-1.106-1.106-1.106H1.205a1.105 1.105 0 1 0 0 2.211h4.018c.611 0 1.106-.494 1.106-1.105zM1.205 10.146h4.018a1.105 1.105 0 1 0 0-2.211H1.205a1.105 1.105 0 1 0 0 2.21z"/></g><g transform="translate(15 15)"><use fill="#FFF" fill-rule="evenodd" xlink:href="#c"/><path stroke="#56A6F2" stroke-width=".2" d="M2.233 25.781h-.09v.1h.003l.087-.1zm2.233.004l.097.096h.003v-.1h-.1v.004z"/></g><path d="M38.994 37.207a.747.747 0 0 0-.02-.165c-.321-2.59-1.958-4.752-4.196-5.748a5.135 5.135 0 0 0 2.145-4.203c0-2.812-2.204-5.091-4.922-5.091-2.719 0-4.922 2.28-4.922 5.09 0 1.748.85 3.288 2.147 4.205-2.219.988-3.846 3.122-4.187 5.682a.74.74 0 0 0-.039.23l.006.058c0 .41.315.735.702.735a.714.714 0 0 0 .702-.726c.341-2.784 2.558-4.955 5.294-5.102a4.839 4.839 0 0 0 .595 0c2.736.147 4.953 2.318 5.28 5.093.017.41.331.735.72.735a.714.714 0 0 0 .695-.793zm-10.51-10.115c0-2.008 1.574-3.636 3.516-3.636s3.516 1.628 3.516 3.636c0 1.896-1.404 3.452-3.195 3.62a6.84 6.84 0 0 0-.64 0c-1.793-.167-3.197-1.723-3.197-3.62z" fill="#FFF"/></g></g></svg>
